X: 25
T: Rolling In The Ryegrass
Z: swisspiper
S: https://thesession.org/tunes/87#setting51900
R: reel
M: 4/4
L: 1/8
K: Dmaj
"D"A2 {c}AF {A}DF{c}AF|"G"~G2 BG dG{c}BG|"D"(3.A.c.A {c}AF {A}DF{c}AF|"G"GB{AB}AF "A"{A}EF DF|
"D"(3.A.c.A {c}AF {A}DF{c}AF|"G"~G2 (3BAG dG{c}BG|"D"FA {B}A{G}A DF{c}AF|"G"GB{AB}AF "A"{A}E2 "D"D2||
ABde {a}fdef|"G"{a}gefg "A"(3.e.g.e dB|"D"{c}ABde f~a3|"A"{b}afdf "G"(3.e.g.e dB|
"D"{c}ABde {a}fdef|"G"(3gag fg "A"edBd|"D"{c}ABde f~a3|"A"{b}afdf "G"(3.e.g.e "D"dB||

